X:1
T: Duble Kiss's
T: Double Kisses
C:
R:Reel
Q: 232
K:C
M:4/4
L:1/8
|:e|c2 GE c2 de|c2 GE dD De|c2 GE cd ec|fa gf ec ce|
c2 GE c2 de|c2 GE dD De|c2 GE cd ec|fa gf ec ce1/2f1/2|
gc ge gc ce|gc ge ad de|gc ge gc ce|fa gf ec ce1/2f1/2|
gc ge gc ce|gc ge ad de|af ge fd ec|fa gf ec c:|
